icons/svg/sort-down_20.svg

<?xml version="1.0" encoding="UTF-8"?>
<svg width="20px" height="20px" viewBox="0 0 20 20" version="1.1" xmlns="http://www.w3.org/2000/svg" xmlns:xlink="http://www.w3.org/1999/xlink">
    <!-- Generator: Sketch 58 (84663) - https://sketch.com -->
    <title>sort-down_20</title>
    <desc>Created with Sketch.</desc>
    <g id="New-Icon" stroke="none" stroke-width="1" fill="none" fill-rule="evenodd">
        <g id="format/sort-down_20" fill="#171B1F">
            <path d="M3.5001,0 C3.7761,0 4.0001,0.224 4.0001,0.5 L4.0001,0.5 L4.0001,19.5 C4.0001,19.715 3.8621,19.906 3.6581,19.974 C3.6061,19.992 3.5531,20 3.5001,20 C3.3461,20 3.1961,19.928 3.1001,19.8 L3.1001,19.8 L0.1001,15.8 C-0.0659,15.579 -0.0209,15.266 0.2001,15.1 C0.4201,14.934 0.7351,14.979 0.9001,15.2 L0.9001,15.2 L3.0001,18 L3.0001,0.5 C3.0001,0.224 3.2241,0 3.5001,0 Z M6.5001,15 L19.5001,15 C19.7761,15 20.0001,15.224 20.0001,15.5 C20.0001,15.7453333 19.8231123,15.9495802 19.5899381,15.9919396 L19.5001,16 L6.5001,16 C6.2241,16 6.0001,15.776 6.0001,15.5 C6.0001,15.2546667 6.17708765,15.0504198 6.41026187,15.0080604 L6.5001,15 L19.5001,15 Z M19.5001,9.5 C19.7761,9.5 20.0001,9.724 20.0001,10 C20.0001,10.2453333 19.8231123,10.4495802 19.5899381,10.4919396 L19.5001,10.5 L6.5001,10.5 C6.2241,10.5 6.0001,10.276 6.0001,10 C6.0001,9.75466667 6.17708765,9.55041975 6.41026187,9.50806036 L6.5001,9.5 L19.5001,9.5 Z M19.5001,4 C19.7761,4 20.0001,4.224 20.0001,4.5 C20.0001,4.74533333 19.8231123,4.94958025 19.5899381,4.99193964 L19.5001,5 L6.5001,5 C6.2241,5 6.0001,4.776 6.0001,4.5 C6.0001,4.25466667 6.17708765,4.05041975 6.41026187,4.00806036 L6.5001,4 L19.5001,4 Z" id="fill"></path>
        </g>
    </g>
</svg>

<svg width="20" height="20" xmlns="http://www.w3.org/2000/svg"><path d="M3.5 0a.5.5 0 01.5.5v19a.5.5 0 01-.9.3l-3-4a.5.5 0 11.8-.6L3 18V.5a.5.5 0 01.5-.5zm3 15h13a.5.5 0 01.09.992L19.5 16h-13a.5.5 0 01-.09-.992L6.5 15h13zm13-5.5a.5.5 0 01.09.992l-.09.008h-13a.5.5 0 01-.09-.992L6.5 9.5h13zm0-5.5a.5.5 0 01.09.992L19.5 5h-13a.5.5 0 01-.09-.992L6.5 4h13z" fill="#171B1F" fill-rule="evenodd"/></svg>
